X: 39594
T: Teelin, The
R: reel
M: 4/4
K: Dmixolydian
|:A3c BGAD|EGAB ~c2Bc|A3 c B3 d|cAGB ADD2:|
|:d2Ac BGAD|EGAB ~c2Bc|~d2Ac ~B3 d|cAGB ADD2:|

